svgs/dolphin_emulator.svg

<svg width="192" height="192" viewBox="0 0 192 192" fill="none" xmlns="http://www.w3.org/2000/svg">
<path d="M126.471 120.107C115.346 108.781 106.831 102.138 87.2941 98.204M170 130C155.289 107.664 139.884 94.3806 125.02 84.0422M125.02 84.0422C120.022 77.7765 115.443 64.7526 137.111 62.7829C129.534 61.4697 110.22 60.8623 93.5817 68.9383M125.02 84.0422C114.083 76.4357 103.44 71.6233 93.5817 68.9383M93.5817 68.9383C66.6201 61.5948 42.3137 69.2692 35.5425 84.0422C28.7712 98.8152 25.7081 100.618 22 103.901C35.7018 98.606 48.514 96.989 60.2092 96.3284M60.2092 96.3284C63.4336 102.285 73.0405 113.773 92 118.5C89.7429 116.345 82.5 107.5 87.2941 98.204M60.2092 96.3284C70.0784 95.7709 79.1522 96.5644 87.2941 98.204" stroke="black" stroke-width="12" stroke-linecap="round" stroke-linejoin="round"/>
</svg>

<svg width="192" height="192" viewBox="0 0 192 192" fill="none" xmlns="http://www.w3.org/2000/svg"><path d="M126.471 120.107c-11.125-11.326-19.64-17.969-39.177-21.903M170 130c-14.711-22.336-30.116-35.62-44.98-45.958m0 0c-4.998-6.266-9.577-19.29 12.091-21.26-7.577-1.312-26.891-1.92-43.53 6.156m31.439 15.104c-10.937-7.606-21.58-12.419-31.438-15.104m0 0c-26.962-7.343-51.268.331-58.04 15.104-6.77 14.773-9.834 16.576-13.542 19.859 13.702-5.295 26.514-6.912 38.21-7.573m0 0c3.224 5.957 12.83 17.445 31.79 22.172-2.257-2.155-9.5-11-4.706-20.296M60.21 96.328c9.87-.557 18.943.236 27.085 1.876" stroke="#000" stroke-width="12" stroke-linecap="round" stroke-linejoin="round"/></svg>
